X:1
T:James Gibb editions
T:Hosanna Filio David - Schubert
%%score [ 1 2 3 4 ]
L:1/8
Q:1/4=120
M:2/2
K:C
V:1 treble nm="Soprano" snm="S"
V:2 treble nm="Alto" snm="A"
V:3 treble-8 nm="Tenor" snm="T"
V:4 bass nm="Bass" snm="B"
V:1
"^Hosanna Filio David"!f!"^Franz Schubert\n(1797-1828)""^allegro molto moderato" c4 | c6 c2 | %2
w: Ho-|san- na|
 c4 c2 c2 | B8 | B4!p! B2 B2 | (A8 |"^cresc." B8 | c4 d4) | e4 e4 |!f!!>(! f8 | e4!>)! e4 | %11
w: Fi- li- o|Da-|vid. Be- ne-|di\-|||ctus qui|ve-|nit in|
!p! d4 c2 c2 | A6 A2 | !fermata!B8 |!f! d8- | d4 d4 | e6 d2 | c4!p! B4 | A4 B4 |"^cresc." c4 f4 | %20
w: no- mi- ne|Do- mi-|ni.|O|* Rex|Is- ra-|el, ho-|san- na|in ex\-|
!f! d8- | d8 | !fermata!e8 |] %23
w: cel\-||sis.|
V:2
!f! E4 | E6 E2 | E4 E2 E2 | D8 | D4!p! D2 D2 | (C8 |"^cresc." D8 | C4 G4) | G4 G4 |!f!!>(! G8 | %10
w: Ho-|san- na|Fi- li- o|Da-|vid. Be- ne-|di\-|||ctus qui|ve-|
 G4!>)! G4 |!p! G4 E2 E2 | D6 D2 | !fermata!D8 |!f! G8- | G4 G4 | G6 G2 | G4!p! ^G4 | A4 F4 | %19
w: nit in|no- mi- ne|Do- mi-|ni.|O|* Rex|Is- ra-|el, ho-|san- na|
"^cresc." E4 F4 |!f! G8- | G8 | G8 |] %23
w: in ex\-|cel\-||sis.|
V:3
!f! G4 | G6 G2 | G4 G2 G2 | G8 | G4!p! E2 E2 | (E8 |"^cresc." G8 | E4 G4) | G4 c4 |!f!!>(! d8 | %10
w: Ho-|san- na|Fi- li- o|Da-|vid. Be- ne-|di\-|||ctus qui|ve-|
 c4!>)! c4 |!p! B4 c2 G2 | G4 ^F4 | !fermata!G8 |!f! B8- | B4 B4 | c6 B2 | c4!p! d4 | c4 d4 | %19
w: nit in|no- mi- ne|Do- mi-|ni.|O|* Rex|Is- ra-|el, ho-|san- na|
"^cresc." G4 c4 |!f! (c4 B2 A2 | B8) | !fermata!c8 |] %23
w: in ex\-|cel\- * *||sis.|
V:4
!f! C,4 | C,6 C,2 | C,4 C,2 C,2 | G,,8 | G,,4!p! ^G,,2 G,,2 | (A,,8 |"^cresc." =G,,8- | %7
w: Ho-|san- na|Fi- li- o|Da-|vid. Be- ne-|di\-||
 A,,4 B,,4) | C,4 C,4 |!f!!>(! B,,8 | C,4!>)! C,4 |!p! G,4 C,2 C,2 | D,6 D,2 | !fermata!G,,8 | %14
w: |ctus qui|ve-|nit in|no- mi- ne|Do- mi-|ni.|
!f! G,8- | G,4 G,4 | C6 G,2 | E,4!p! E,4 | F,4 D,4 |"^cresc." C,4 A,,4 |!f! G,,8- | G,,8 | %22
w: O|* Rex|Is- ra-|el, ho-|san- na|in ex\-|cel\-||
 !fermata!C,8 |] %23
w: sis.|

